!!!COM: Distler, Hugo
!!!CDT: 1908-1942
!!!LAR: Tauler, Johannes
!!!OPR@@DE: Der Jahrkreis
!!!OPR@EN: The Year Cycle
!!!OTL@@DE: Es kommt ein Schiff, geladen
!!!OTL@EN: A ship is coming, laden
!!!OPS: 5
!!!ONM: 1
**kern	**text	**kern	**text	**kern	**text
*part3	*part3	*part2	*part2	*part1	*part1
*staff3	*staff3	*staff2	*staff2	*staff1	*staff1
*Ialto	*	*Isoprn	*	*Isoprn	*
*clefG2	*	*clefG2	*	*clefG2	*
*k[f#]	*	*k[f#]	*	*k[f#]	*
*MM80	*	*MM80	*	*MM80	*
*	*v:1	*	*v:1	*	*v:1
*M6/4	*	*M6/4	*	*M6/4	*
4r	.	4e	Es	4r	.
=1	=1	=1	=1	=1	=1
4r	.	2e	kommt	4r	.
4e	Es	.	.	4b	Es
4d	kommt	4e	ein	4b	kommt
4c	ein	2f#	Schiff,	4b	ein
2e	Schiff,	.	.	4g	Schiff,
.	.	4f#	ge-	4a	ge
=2	=2	=2	=2	=2	=2
4e	ge-	(4g	la-	(4.b	la-
2e	la	4a	.	.	.
.	.	.	.	8dd	.
.	.	4b)	.	4ee)	.
4B,	den	2b,	den	4dd#,	den
2g	bis	.	.	2ee	bis
.	.	4b	bis	.	.
=3	=3	=3	=3	=3	=3
4e	an	4a	an	4dd	an
4d	sein'	4a	sein'	4b	sein
(4.c	höch-	2e	höch-	2g	höch-
.	.	.	.	.	.
8B)	.	.	.	.	.
4A	sten	4f#	sten	4a	sten
=4	=4	=4	=4	=4	=4
*M2/4	*	*M2/4	*	*M2/4	*
[2e	Bord,	4g,	Bord,	4b,	Bord,
.	.	4g	trägt	4g	trägt
=5	=5	=5	=5	=5	=5
*4/4	*	*M4/4	*	*M4/4	*
2e]	.	4f#	Got-	4b	Got-
.	.	4a	tes	4dd	tes
4r	.	4b	Sohn	4ee	Sohn
4G	trägt	4b	voll	4ee	voll
=6	=6	=6	=6	=6	=6
*	*	*M8/4	*	*M8/4	*
4B	Got-	(4a	Gna-	(4dd	Gna-
4d	tes	4.f#	.	4.b	.
[2e	Sohn	.	.	.	.
.	.	8eL	.	8ddL	.
.	.	8f#	.	8eeJ	.
.	.	8b	.	4dd	.
=7	=7	=-	=-	=-	=-
4e]	.	8f#	.	.	.
.	.	8eJ	.	8.bL	.
4e	voll	4.f#	.	.	.
.	.	.	.	16a	.
.	.	.	.	8gJ	.
*^	*	*	*	*	*
2c	2c	Gna-	.	.	2a)	.
.	.	.	8g	.	.	.
.	.	.	4a)	.	.	.
=8	=8	=8	=7	=7	=7	=7
*M2/4	*	*	*M2/4	*	*M2/4	*
4d,	4G	den,	4b,	den,	4g,	den,
4d	4d	des	4f#	des	4a	des
*v	*v	*	*	*	*	*
=9	=9	=8	=8	=8	=8
*M5/4	*	*M5/4	*	*M5/4	*
4B	Va-	4g	Va-	4b	Va-
4d	ters	4f#	ters	4a	ters
4e	ew'-	2e	ew'-	4g	ew'-
2B	ges	.	.	2f#	ges
.	.	4d#	ges	.	.
=10	=10	=9	=9	=9	=9
*M6/4	*	*M6/4	*	*M6/4	*
(4.e	Wort.	(4.e	Wort.	(1.e	Wort.
8cL	.	8f#L	.	.	.
8e	.	8a	.	.	.
8f#	.	8b	.	.	.
8aJ	.	8dd	.	.	.
4f#	.	8bJ	.	.	.
.	.	2a	.	.	.
8e	.	.	.	.	.
4f#	.	.	.	.	.
=11	=11	=10	=10	=10	=10
1g#)	.	1b)	.	1e)	.
4r	.	4r	.	4r	.
=||	=||	=||	=||	=||	=||
*-	*-	*-	*-	*-	*-
!!!YOR: Bärenreiter-Ausgabe 676
!!!YOY: 1933
!!!EFL: 4/52
!!!URL-scan: https://imslp.eu/files/imglnks/euimg/7/7d/IMSLP834545-PMLP518834-5-jahrkreis-EA--original-paper-600dpi.pdf#page=11
!!!URL-imslp:https://imslp.org/wiki/Der_Jahrkreis,_Op.5_(Distler,_Hugo)#IMSLP834545
!!!system-decoration: [(s1,s2,s3)]
!!!ENC: Lucas Hofmann
!!!END: 2023/10/12
